X:205
T:Sailor's Wedding - Chubb
%%VWML:SBG-1-2-733-0
F:http://www.vwml.org/record/SBG/1/2/733
Z:Original Sibelius transcriptions by M. & S. Graebe
M:6/8
I:linebreak $
K:A
V:1 treble nm="P1"
V:1
 A2 c e>f e | c2 B A2 A | B2 c/B/ d2 c | A3 A2 G/F/ | E2 C A2 A |$ E4 z2 | G2 A/B/ d2 c | B2 G A3 | %8
w: |||||||( * )|
 !fermata!e2 !fermata!c !fermata!e2 !fermata!c | Bc d e2 c | ^d2 d c2 B |$ c2 d e3 | A2 B ef e | %13
w: ||* * * (|* ) *||
 c2 B A2 A | B2 c/B/ F2 G | A4 z2 | %16
w: |||



